X: 7640
T: Colbagh Breck
R: slip jig
M: 9/8
K: Aminor
|:cBA BAG E2G|G2E GAG EGA|c2A BAG E2A|1 ABG A3 A2B:|2 ABG A3 A2G||
E2D C2D E2G|G2E GAG E3|E2D C2D E2A|ABG A3 GAB|
cBA B2G E2G|G2E GAG EGA|c2A BAG E2A|ABG A3 A3||

